X:1
T:Clerk Colvill
M:3/4
L:1/8
K:C
 D3/2- G/2| GG G2 A2| d4c-G| A3 z D3/2 G/2| G2 G2 A2| d4c-A| G3 z D3/2- G/2|\
 GG G2 A2| d4c-G| A3 D D3/2 G/2| G4 A2| d4c-A| G6|
